assets/img/i-d-respeto.svg

<svg width="90" height="90" viewBox="0 0 90 90" fill="none" xmlns="http://www.w3.org/2000/svg">
<path d="M21.1423 89.278C23.4494 89.278 25.3197 86.8869 25.3197 83.9373C25.3197 80.9878 23.4494 78.5967 21.1423 78.5967C18.8351 78.5967 16.9648 80.9878 16.9648 83.9373C16.9648 86.8869 18.8351 89.278 21.1423 89.278Z" fill="#00C4D1"/>
<path d="M12.5474 76.8561C14.3162 76.8561 15.7501 75.0229 15.7501 72.7616C15.7501 70.5002 14.3162 68.6671 12.5474 68.6671C10.7786 68.6671 9.34473 70.5002 9.34473 72.7616C9.34473 75.0229 10.7786 76.8561 12.5474 76.8561Z" fill="#9D3BFF"/>
<path d="M80.9021 9.16813C82.8247 9.16813 84.3832 7.17555 84.3832 4.71758C84.3832 2.25961 82.8247 0.267029 80.9021 0.267029C78.9795 0.267029 77.4209 2.25961 77.4209 4.71758C77.4209 7.17555 78.9795 9.16813 80.9021 9.16813Z" fill="#9D3BFF"/>
<path d="M46.2142 87.4879C45.4053 87.4894 44.6041 87.2866 43.8567 86.8911C43.1093 86.4957 42.4303 85.9154 41.8588 85.1835L17.5525 54.1088C6.28121 39.7088 8.045 22.322 15.6185 12.5704C22.7742 3.36266 35.3142 0.702221 46.2142 12.5704C57.1064 0.791232 69.6231 3.41211 76.7943 12.6099C84.3601 22.3418 86.1316 39.7187 74.8681 54.1484L50.5695 85.1835C49.4123 86.6561 47.8469 87.4844 46.2142 87.4879ZM30.487 11.7791C28.4553 11.7837 26.4444 12.3016 24.5699 13.303C22.6953 14.3044 20.994 15.7696 19.5638 17.6143C14.1487 24.6165 12.3926 37.4539 21.4901 49.0747L45.7964 80.1099C45.8511 80.1805 45.9161 80.2365 45.9879 80.2747C46.0596 80.313 46.1365 80.3326 46.2142 80.3326C46.2918 80.3326 46.3688 80.313 46.4405 80.2747C46.5122 80.2365 46.5772 80.1805 46.6319 80.1099L70.9305 49.0747C80.0125 37.4638 78.2874 24.6363 72.8413 17.6341C67.3952 10.6319 57.3694 8.33738 48.3029 19.8396C47.7445 20.5409 46.993 20.9338 46.2103 20.9338C45.4276 20.9338 44.6761 20.5409 44.1177 19.8396C39.5767 14.0934 34.8114 11.7791 30.487 11.7791Z" fill="#00C4D1"/>
<path d="M87.1529 17.5055C89.845 17.5055 89.845 12.1649 87.1529 12.1649C84.4608 12.1649 84.4608 17.5055 87.1529 17.5055Z" fill="#00C4D1"/>
<path d="M44.8139 57.2341C26.3018 57.2341 0.23169 52.2594 0.254898 41.2121C0.254898 35.1099 7.99084 32.2616 9.99445 31.4308L10.7139 38.3539C9.06586 39.0234 7.51201 40.025 6.11101 41.3209C8.84953 44.6044 23.4627 50.1231 44.7907 50.1231C66.1187 50.1231 80.7629 44.6044 83.4705 41.3209C82.8709 40.7739 82.2215 40.3222 81.5365 39.9758L82.3101 32.8154C83.6948 33.5769 89.3498 36.4945 89.3498 41.222C89.373 52.2594 63.3183 57.2341 44.8139 57.2341Z" fill="#9D3BFF"/>
<path d="M9.62392 28.8C9.28999 32.5687 9.61228 36.3851 10.5677 39.9758L13.9251 36.4945L14.2887 27.7516L9.62392 28.8Z" fill="#00C4D1"/>
<path d="M80.8945 31.4308L82.8827 32.1231C82.8827 32.1231 82.5655 38.2154 81.3355 41.7264" fill="#00C4D1"/>
</svg>

<svg xmlns="http://www.w3.org/2000/svg" width="90" height="90" fill="none" xmlns:v="https://vecta.io/nano"><path d="M21.142 89.278c2.307 0 4.177-2.39 4.177-5.34s-1.87-5.34-4.177-5.34-4.177 2.39-4.177 5.34 1.87 5.34 4.177 5.34z" fill="#00c4d1"/><path d="M12.547 76.856c1.77 0 3.203-1.833 3.203-4.094s-1.434-4.094-3.203-4.094-3.203 1.833-3.203 4.094 1.434 4.094 3.203 4.094zM80.902 9.168c1.923 0 3.48-1.993 3.48-4.45s-1.558-4.45-3.48-4.45-3.48 1.993-3.48 4.45 1.56 4.45 3.48 4.45z" fill="#9d3bff"/><path d="M46.214 87.488a5.01 5.01 0 0 1-2.358-.597c-.758-.397-1.426-.976-1.998-1.708L17.553 54.1C6.28 39.7 8.045 22.322 15.62 12.57c7.156-9.208 19.696-11.868 30.596 0 10.892-11.78 23.4-9.158 30.58.04 7.566 9.732 9.337 27.1-1.926 41.54l-24.3 31.035c-1.157 1.473-2.723 2.3-4.355 2.304zM30.487 11.78c-2.032.005-4.043.523-5.917 1.524s-3.576 2.467-5.006 4.3c-5.415 7.002-7.17 19.84 1.926 31.46L45.796 80.1a.6.6 0 0 0 .192.165.48.48 0 0 0 .226.058.48.48 0 0 0 .226-.058.57.57 0 0 0 .19-.165l24.3-31.035c9.082-11.6 7.357-24.438 1.9-31.44S57.37 8.337 48.303 19.84c-.558.7-1.3 1.094-2.093 1.094s-1.534-.393-2.093-1.094c-4.54-5.746-9.306-8.06-13.63-8.06zm56.666 5.726c2.692 0 2.692-5.34 0-5.34s-2.692 5.34 0 5.34z" fill="#00c4d1"/><path d="M44.814 57.234C26.302 57.234.232 52.26.255 41.212c0-6.102 7.736-8.95 9.74-9.78l.72 6.923c-1.648.67-3.202 1.67-4.603 2.967 2.74 3.283 17.352 8.802 38.68 8.802s35.972-5.52 38.68-8.802c-.6-.547-1.25-1-1.934-1.345l.774-7.16c1.385.762 7.04 3.68 7.04 8.407.023 11.037-26.03 16.012-44.536 16.012z" fill="#9d3bff"/><path d="M9.624 28.8c-.334 3.77-.012 7.585.944 11.176l3.357-3.48.364-8.743L9.624 28.8zm71.27 2.63l1.988.692s-.317 6.092-1.547 9.603" fill="#00c4d1"/></svg>
